X: 14933
T: Gavotte
R: three-two
M: 3/2
K: Eminor
|:AG AB c2 Bc dc B2|1 AG AB c2 Bc dc B2:|
|:c2 A2 GA Bd cB AB|c2 A2 GA Bd cB AB:|
|:AGAB c2 Bc dc B2|1 AGAB c2 Bc dc B2:|
|:c2 A2 GABd cBAB|c2 A2 GABd cBAB:|
|:A>GA>B c2 B>c d>c B2|1 A>GA>B c2 B>c d>c B2:|
|:c2 A2 G>AB>d c>BA>B|c2 A2 G>AB>d c>BA>B:|

